assets/icons/qvision/dinner_dining.svg

<svg xmlns="http://www.w3.org/2000/svg" enable-background="new 0 0 24 24" height="24" viewBox="0 0 24 24" width="24"><g><rect fill="none" height="24" width="24"/></g><g><path d="M2,19h20l-2,2H4L2,19z M5,6h1v1H5V6z M5,4h1v1H5V4z M9,4v1H7V4H9z M9,7H7V6h2V7z M6,15.23c-0.36,0.11-0.69,0.28-1,0.47V8h1 V15.23z M4,16.52C3.62,16.96,3.32,17.45,3.16,18h16.82c0.01-0.16,0.03-0.33,0.03-0.5c0-3.04-2.46-5.5-5.5-5.5 c-2.29,0-4.25,1.4-5.08,3.4C8.84,15.15,8.19,15,7.5,15c-0.17,0-0.33,0.02-0.5,0.04V8h2c1.03,0.06,1.9-0.96,2-2h10V5H11 c-0.1-1.05-0.97-1.97-2-2H3v1h1v1H3v1h1v1H3v1h1V16.52z"/></g></svg>

<svg width="24" height="24" viewBox="0 0 24 24" fill="none" xmlns="http://www.w3.org/2000/svg">
<g clip-path="url(#clip0_147_5185)">
<path d="M2 19H22L20 21H4L2 19ZM5 6H6V7H5V6ZM5 4H6V5H5V4ZM9 4V5H7V4H9ZM9 7H7V6H9V7ZM6 15.23C5.64 15.34 5.31 15.51 5 15.7V8H6V15.23ZM4 16.52C3.62 16.96 3.32 17.45 3.16 18H19.98C19.99 17.84 20.01 17.67 20.01 17.5C20.01 14.46 17.55 12 14.51 12C12.22 12 10.26 13.4 9.43 15.4C8.84 15.15 8.19 15 7.5 15C7.33 15 7.17 15.02 7 15.04V8H9C10.03 8.06 10.9 7.04 11 6H21V5H11C10.9 3.95 10.03 3.03 9 3H3V4H4V5H3V6H4V7H3V8H4V16.52Z" fill="#323232"/>
</g>
<defs>
<clipPath id="clip0_147_5185">
<rect width="24" height="24" fill="white"/>
</clipPath>
</defs>
</svg>
